X:632
T:O'Mahony's
R:reel
H:This is an unusual version.
D:Ceol Tigh Neachtain
Z:id:hn-reel-632
M:C|
K:D
AF~F2 DF~F2|AF~F2 ABde|~f3a bf~f2|e2df eAce|
dBBA BFAF|DAFD ADFA|BGFA Gbag|1 (3fga ec d2dB:|2 (3fga ec d2 (3efg||
|:f2fe fafe|df~f2 af~f2|dFAd fAdf|geed eAce|
f2fe fafe|df~f2 af~f2|~g2fa gbag|1 (3fga ec d2 (3efg:|2 (3fga ec d2fg||
aA~A2 FAde|~f2df bagf|geed edcB|BA^GB Aef=g|
aA~A2 FAde|~f2df bagf|geed edcB|Aafe d2fg|
aA~A2 FA~A2|dA~A2 fA~A2|gAfA eAdB|BA^GB Aef=g|
aA~A2 FA~A2|dA~A2 fA~A2|gAfA eAdB|Aafe d2dB||
